X: 3
T: Martin Rochford's
R: reel
M: 4/4
L: 1/8
K: Cmaj
F2CD FGAc|cAGc Add2|FDCD FAdA|1 cAGc ADDE:|2 cAGc ADD2|:f2df edcG|Ad (3ddd Adde|1 f2af edcA|dAGd ADD2:|2 f2af ec~c2|cAGc ADD2||


Tune 1062	Setting 1062

